X:1
T:The Blackleg Miners
M:4/4
L:1/4
K:F
 F| B/2B/2 B/2B/2 A3/2 G/2| A B/2B/2 c3/2 c/2| d d G G| F G D| D/2D/2|\
 B B A/2A/2 G| A B c c| d3/2 G/2 B A| G G z||
